X:2365
T:the 42-pound cheque
O:ireland
R:Polka
M:4/4
K:D
A2d2 B2dB|A2D2 F2A2|G2E2 B2E2|ABAG E2D2|\
D2d2 B2dB|A2D2 F2A2|G2E2 e3f|e2d2 d3::
B|\
A2d2 f2d2|g3f e2d2|c2A2 e2A2|efed B2A2|\
A2d2 f2d2|g3f e2d2|cBA2 B2c2|d4 d3:|
Z:Richard Robinson <richard@beulah.demon.co.uk>
